X:2
T:Cercle circassien
G:Kazimodal
R:Cercle circassien
C:?, arrangement Ronan Keryell http://kazimodal.trad.org
Q:C3=140
P:IB4
M:6/8
S:?
%%MIDI program 109
%%MIDI gchord fzzczzfzzczz
%%MIDI chordprog 105
%%MIDI bassprog 32
%%MIDI bassvol 127
K:Am
P:I
"Am"A2 B \
P:B
|: c2 c "C"cde | "G"dBG GAB | "F"c2 A ABc | "Em"BGE EAB |
	"Am"c2 c "C"cde | "G"dBG GAB | "F"cBA "Em"BcB |1 "Am"A2 A A2 B :|2\
	"Am"A2 A A"Em"e"D"^f |
|: "C"g2 g g^fe | "G"dBG "Em"G3 | "F"a2 a aba | "Em"g2 e e2 "G"f |
	"C"gce gfe | "G"dBG "Em"GAB | "F"cBA "G"BAG |1\
	 "Am"A2 A A"Em"e"D"^f :|2 "Am"A2 A "Am"A2 B ||

%%newpage

